cms/static/cms/icons/undo.svg

<?xml version="1.0" encoding="UTF-8"?>
<svg width="24px" height="24px" viewBox="0 0 24 24" version="1.1" xmlns="http://www.w3.org/2000/svg" xmlns:xlink="http://www.w3.org/1999/xlink">
    <!-- Generator: Sketch 48.2 (47327) - http://www.bohemiancoding.com/sketch -->
    <title>Resources/icons/undo</title>
    <desc>Created with Sketch.</desc>
    <defs>
        <path d="M14.189,5 C14.135,5 13.751,5 13.751,5.438 L13.751,9.811 C13.751,10.052 13.947,10.249 14.189,10.249 C14.431,10.249 14.599,10.017 14.785,9.833 L16.001,8.617 C16.775,9.532 17.247,10.708 17.247,11.998 C17.247,14.898 14.897,17.246 11.998,17.246 C10.632,17.246 9.387,16.724 8.453,15.869 C7.406,14.91 6.749,13.531 6.749,11.998 L5,11.998 C5,14.014 5.852,15.831 7.215,17.107 C8.466,18.279 10.148,18.996 11.998,18.996 C15.863,18.996 18.996,15.864 18.996,11.998 C18.996,10.222 18.333,8.608 17.244,7.375 L18.497,6.12 C18.733,5.883 19,5.678 19,5.438 C19,5.197 18.805,5 18.562,5 L14.189,5 Z" id="path-1"></path>
    </defs>
    <g id="Symbols" stroke="none" stroke-width="1" fill="none" fill-rule="evenodd">
        <g id="Resources/icons/undo">
            <mask id="mask-2" fill="white">
                <use xlink:href="#path-1"></use>
            </mask>
            <g id="Clip-2" transform="translate(12.000000, 11.998000) rotate(275.000000) translate(-12.000000, -11.998000) "></g>
            <g id="Resources/Colour/black" mask="url(#mask-2)" fill="#000000">
                <rect id="Rectangle" x="0" y="0" width="24" height="24"></rect>
            </g>
        </g>
    </g>
</svg>

<?xml version="1.0" encoding="utf-8"?>
<!-- Generator: Adobe Illustrator 19.1.0, SVG Export Plug-In . SVG Version: 6.00 Build 0)  -->
<svg version="1.1" id="Layer_1" xmlns="http://www.w3.org/2000/svg" xmlns:xlink="http://www.w3.org/1999/xlink" x="0px" y="0px"
	 viewBox="0 0 24 24" enable-background="new 0 0 24 24" xml:space="preserve">
<g>
	<path id="path-1" d="M14.2,5c-0.1,0-0.4,0-0.4,0.4v4.4c0,0.2,0.2,0.4,0.4,0.4c0.2,0,0.4-0.2,0.6-0.4L16,8.6
		c0.8,0.9,1.2,2.1,1.2,3.4c0,2.9-2.3,5.2-5.2,5.2c-1.4,0-2.6-0.5-3.5-1.4c-1-1-1.7-2.3-1.7-3.9H5c0,2,0.9,3.8,2.2,5.1
		C8.5,18.3,10.1,19,12,19c3.9,0,7-3.1,7-7c0-1.8-0.7-3.4-1.8-4.6l1.3-1.3C18.7,5.9,19,5.7,19,5.4C19,5.2,18.8,5,18.6,5H14.2z"/>
</g>
</svg>
